X: 4
T: Rip The Calico
R: reel
M: 4/4
L: 1/8
K: Dmix
|d2 (3ddd B2 (3dde|e>cd>B GE3| d2 (3ddd B2(3dde| e>cd>B GE3|G>Bc>d e2f>g|a>fg>e d4|(3cAAA2 (3cAAA2|(3GEEE2 (3GEEE2||(3cAAA2 (3cAAA2|A>cd>c d4|


Tune 719	Setting 25461

